public/assets/icons/ic_closeButton.svg

<svg width="32" height="32" viewBox="0 0 32 32" fill="none" xmlns="http://www.w3.org/2000/svg">
<rect width="32" height="32" rx="16" fill="#E5E5E5"/>
<path d="M16 14.6669L20.6669 10L22 11.3331L17.3331 16L22 20.6669L20.6669 22L16 17.3331L11.3331 22L10 20.6669L14.6669 16L10 11.3331L11.3331 10L16 14.6669Z" fill="#4F4F4F"/>
</svg>

<svg xmlns="http://www.w3.org/2000/svg" width="32" height="32" fill="none"><rect width="32" height="32" fill="#E5E5E5" rx="16"/><path fill="#4F4F4F" d="m16 14.7 4.7-4.7 1.3 1.3-4.7 4.7 4.7 4.7-1.3 1.3-4.7-4.7-4.7 4.7-1.3-1.3 4.7-4.7-4.7-4.7 1.3-1.3 4.7 4.7Z"/></svg>
